images_elementary_svg/cmd/sc_aligndown.svg

<svg height="16" width="16" xmlns="http://www.w3.org/2000/svg" xmlns:xlink="http://www.w3.org/1999/xlink"><linearGradient id="a" gradientTransform="matrix(.48571543 0 0 .45629666 -34.78968 -5.734851)" gradientUnits="userSpaceOnUse" x1="25.132275" x2="25.132275" y1=".985206" y2="47.013336"><stop offset="0" stop-color="#f4f4f4"/><stop offset="1" stop-color="#dbdbdb"/></linearGradient><linearGradient id="b" gradientTransform="matrix(.25378586 0 0 .30501865 -43.521986 -5.539135)" gradientUnits="userSpaceOnUse" x1="-51.786404" x2="-51.786404" y1="50.786446" y2="2.906247"><stop offset="0" stop-opacity=".339506"/><stop offset="1" stop-opacity=".246914"/></linearGradient><linearGradient id="c" gradientTransform="matrix(.40540511 0 0 .51351351 2.269687 -.324319)" gradientUnits="userSpaceOnUse" x1="23.99999" x2="23.99999" y1="6.473675" y2="41.526306"><stop offset="0" stop-color="#fff"/><stop offset="0" stop-color="#fff" stop-opacity=".235294"/><stop offset="1" stop-color="#fff" stop-opacity=".156863"/><stop offset="1" stop-color="#fff" stop-opacity=".392157"/></linearGradient><linearGradient id="d" gradientUnits="userSpaceOnUse" x1="13.000001" x2="4.000001" xlink:href="#c" y1="4" y2="4"/><linearGradient id="e" gradientUnits="userSpaceOnUse" x1="10.000001" x2="4.000001" xlink:href="#c" y1="11" y2="11"/><linearGradient id="f" gradientUnits="userSpaceOnUse" x1="2.000001" x2="15.000001" xlink:href="#b" y1="3" y2="3"/><linearGradient id="g" gradientUnits="userSpaceOnUse" x1="2.000001" x2="12.000001" xlink:href="#b" y1="8" y2="8"/><linearGradient id="h" gradientUnits="userSpaceOnUse" x1="15.000001" x2="2.000001" xlink:href="#a" y1="6" y2="6"/><linearGradient id="i" gradientUnits="userSpaceOnUse" x1="12.000001" x2="2.000001" xlink:href="#a" y1="12" y2="12"/><g transform="matrix(0 -1 1 0 0 16.000001)"><path d="m2.500609 6.500007h8.999515v7h-8.999515z" fill="url(#i)" stroke="url(#g)" stroke-linejoin="round" stroke-miterlimit="3"/><path d="m3.500426 7.500007h6.999999v5.000031h-6.999999z" fill="none" stroke="url(#e)" stroke-miterlimit="3"/><g stroke-width="1.000249"><path d="m2.500182 1.496268h11.999694v7.003598h-11.999694z" fill="url(#h)" fill-rule="evenodd" stroke="url(#f)" stroke-linejoin="round" stroke-miterlimit="0"/><path d="m3.500365 2.500068h9.99978v4.999894h-9.99978z" fill="none" stroke="url(#d)" stroke-linecap="round" stroke-miterlimit="2"/></g></g><g transform="translate(0 16.000001)"><path d="m0-4.000365h16v1h-16z" fill="#ce5c00"/><path d="m0-2.000365h16v1h-16z" fill="#ce5c00"/><path d="m0-3.000365h16v1h-16z" fill="#fcaf3e"/></g></svg>

<?xml version="1.0" encoding="UTF-8" standalone="no"?>
<svg
   xmlns:dc="http://purl.org/dc/elements/1.1/"
   xmlns:cc="http://creativecommons.org/ns#"
   xmlns:rdf="http://www.w3.org/1999/02/22-rdf-syntax-ns#"
   xmlns:svg="http://www.w3.org/2000/svg"
   xmlns="http://www.w3.org/2000/svg"
   xmlns:xlink="http://www.w3.org/1999/xlink"
   xmlns:sodipodi="http://sodipodi.sourceforge.net/DTD/sodipodi-0.dtd"
   xmlns:inkscape="http://www.inkscape.org/namespaces/inkscape"
   height="16"
   width="16"
   version="1.1"
   id="svg22"
   sodipodi:docname="sc_aligndown.svg"
   inkscape:export-filename="/home/rizmut/Documents/Rizmut/Github/libreoffice-style-elementary/images_elementary/cmd/sc_alignup.png"
   inkscape:export-xdpi="96"
   inkscape:export-ydpi="96"
   inkscape:version="0.92.3 (2405546, 2018-03-11)">
  <metadata
     id="metadata28">
    <rdf:RDF>
      <cc:Work
         rdf:about="">
        <dc:format>image/svg+xml</dc:format>
        <dc:type
           rdf:resource="http://purl.org/dc/dcmitype/StillImage" />
        <dc:title></dc:title>
      </cc:Work>
    </rdf:RDF>
  </metadata>
  <defs
     id="defs26">
    <radialGradient
       id="a"
       cx="2.25"
       cy="16"
       gradientTransform="matrix(0.53333333,0,0,0.11633788,-20.996611,11.463524)"
       gradientUnits="userSpaceOnUse"
       r="16.875">
      <stop
         offset="0"
         id="stop2" />
      <stop
         offset="1"
         stop-opacity="0"
         id="stop4" />
    </radialGradient>
    <linearGradient
       id="b-6"
       gradientTransform="matrix(0.48571543,0,0,0.45629666,-34.78968,-5.7348509)"
       gradientUnits="userSpaceOnUse"
       x1="25.132275"
       x2="25.132275"
       y1="0.98520601"
       y2="47.013336">
      <stop
         offset="0"
         stop-color="#f4f4f4"
         id="stop1302" />
      <stop
         offset="1"
         stop-color="#dbdbdb"
         id="stop1304" />
    </linearGradient>
    <linearGradient
       id="a-7"
       gradientTransform="matrix(0.25378586,0,0,0.30501865,-43.521986,-5.5391346)"
       gradientUnits="userSpaceOnUse"
       x1="-51.786404"
       x2="-51.786404"
       y1="50.786446"
       y2="2.9062469">
      <stop
         offset="0"
         stop-opacity=".339506"
         id="stop2284" />
      <stop
         offset="1"
         stop-opacity=".246914"
         id="stop2286" />
    </linearGradient>
    <linearGradient
       id="a-3"
       gradientTransform="matrix(0.40540511,0,0,0.51351351,2.269687,-0.324319)"
       gradientUnits="userSpaceOnUse"
       x1="23.99999"
       x2="23.99999"
       y1="6.4736748"
       y2="41.526306">
      <stop
         offset="0"
         stop-color="#fff"
         id="stop1293" />
      <stop
         offset="0"
         stop-color="#fff"
         stop-opacity=".235294"
         id="stop1295" />
      <stop
         offset="1"
         stop-color="#fff"
         stop-opacity=".156863"
         id="stop1297" />
      <stop
         offset="1"
         stop-color="#fff"
         stop-opacity=".392157"
         id="stop1299" />
    </linearGradient>
    <linearGradient
       inkscape:collect="always"
       xlink:href="#a-3"
       id="linearGradient887"
       x1="13.000001"
       y1="4"
       x2="4.000001"
       y2="4"
       gradientUnits="userSpaceOnUse" />
    <linearGradient
       inkscape:collect="always"
       xlink:href="#a-3"
       id="linearGradient889"
       x1="10.000001"
       y1="11"
       x2="4.000001"
       y2="11"
       gradientUnits="userSpaceOnUse" />
    <linearGradient
       inkscape:collect="always"
       xlink:href="#a-7"
       id="linearGradient897"
       x1="2.000001"
       y1="3"
       x2="15.000001"
       y2="3"
       gradientUnits="userSpaceOnUse" />
    <linearGradient
       inkscape:collect="always"
       xlink:href="#a-7"
       id="linearGradient899"
       x1="2.000001"
       y1="8"
       x2="12.000001"
       y2="8"
       gradientUnits="userSpaceOnUse" />
    <linearGradient
       inkscape:collect="always"
       xlink:href="#b-6"
       id="linearGradient907"
       x1="15.000001"
       y1="6"
       x2="2.000001"
       y2="6"
       gradientUnits="userSpaceOnUse" />
    <linearGradient
       inkscape:collect="always"
       xlink:href="#b-6"
       id="linearGradient909"
       x1="12.000001"
       y1="12"
       x2="2.000001"
       y2="12"
       gradientUnits="userSpaceOnUse" />
  </defs>
  <sodipodi:namedview
     pagecolor="#ffffff"
     bordercolor="#666666"
     borderopacity="1"
     objecttolerance="10"
     gridtolerance="10"
     guidetolerance="10"
     inkscape:pageopacity="0"
     inkscape:pageshadow="2"
     inkscape:window-width="1366"
     inkscape:window-height="696"
     id="namedview24"
     showgrid="true"
     inkscape:zoom="10.429825"
     inkscape:cx="-5.7782049"
     inkscape:cy="0.66230982"
     inkscape:window-x="0"
     inkscape:window-y="0"
     inkscape:window-maximized="1"
     inkscape:current-layer="svg22">
    <inkscape:grid
       type="xygrid"
       id="grid879" />
  </sodipodi:namedview>
  <g
     id="g921"
     transform="matrix(0,-1,-1,0,16,15.999636)">
    <g
       id="g12"
       transform="matrix(1,0,0,-1,-3.65e-4,16)">
      <path
         style="fill:url(#linearGradient909);fill-opacity:1;stroke:url(#linearGradient899);stroke-linejoin:round;stroke-miterlimit:3"
         id="path2"
         stroke-miterlimit="3"
         d="m 2.500609,6.500007 h 8.999515 v 7 H 2.500609 Z"
         inkscape:connector-curvature="0" />
      <path
         style="fill:none;stroke:url(#linearGradient889);stroke-miterlimit:3"
         id="path4"
         stroke-miterlimit="3"
         d="m 3.500426,7.500007 h 6.999999 v 5.000031 H 3.500426 Z"
         inkscape:connector-curvature="0" />
      <g
         id="g10"
         style="stroke-width:1.00024903">
        <path
           style="fill:url(#linearGradient907);fill-opacity:1;fill-rule:evenodd;stroke:url(#linearGradient897);stroke-linejoin:round;stroke-miterlimit:0"
           id="path6"
           stroke-miterlimit="0"
           d="M 2.500182,1.496268 H 14.499876 V 8.499866 H 2.500182 Z"
           inkscape:connector-curvature="0" />
        <path
           style="fill:none;stroke:url(#linearGradient887);stroke-linecap:round;stroke-miterlimit:2"
           id="path8"
           stroke-miterlimit="2"
           d="m 3.500365,2.500068 h 9.99978 v 4.999894 h -9.99978 z"
           inkscape:connector-curvature="0" />
      </g>
    </g>
    <g
       id="g20"
       transform="matrix(0,-1,-1,0,-3.65e-4,16)">
      <path
         id="path14"
         d="m 0,-4.000365 h 16 v 1 H 0 Z"
         inkscape:connector-curvature="0"
         style="fill:#ce5c00" />
      <path
         id="path16"
         d="m 0,-2.000365 h 16 v 1 H 0 Z"
         inkscape:connector-curvature="0"
         style="fill:#ce5c00" />
      <path
         id="path18"
         d="m 0,-3.000365 h 16 v 1 H 0 Z"
         inkscape:connector-curvature="0"
         style="fill:#fcaf3e" />
    </g>
  </g>
</svg>
